CSETWebApi/CSETWeb_Api/CSETWeb_ApiCore/Diagram/src/main/webapp/img/lib/mscae/Data_Factory.svg

<svg xmlns="http://www.w3.org/2000/svg" width="50" height="49.9"><path d="M49.9 29.4V17.3L36.2 29.2h-.3V17.3L22.2 29.2V4.3c0-2.1-4.7-4.2-10.9-4.2S0 2.1 0 4.3v45.6h50l-.1-20.5zM11.3 6.3C6.8 6.3 3.2 5.2 3.2 4s3.6-2.3 8.1-2.3 8.1 1 8.1 2.3c-.1 1.2-3.7 2.3-8.1 2.3zm23.6 35.5h-5.5v-5.5h5.5v5.5zm-9.7 0h-5.5v-5.5h5.5v5.5zm14 0v-5.5h5.5v5.5h-5.5z" fill="#59b4d9"/><path d="M0 4h11.1v45.9H0z" fill="#3999c6"/><path d="M22.1 4c0 2.2-5 4-11.1 4S0 6.2 0 4s5-4 11.1-4 11 1.7 11 4" fill="#fff"/><path d="M19.9 3.7c0 1.5-3.9 2.6-8.8 2.6S2.3 5.2 2.3 3.7s3.9-2.6 8.8-2.6 8.8 1.2 8.8 2.6" fill="#7fba00"/><path d="M18 5.3c1.2-.4 1.8-1 1.8-1.6 0-1.5-3.9-2.6-8.8-2.6S2.2 2.3 2.2 3.7c.1.6.8 1.2 1.9 1.6 1.6-.6 4.1-1 7-1 2.8 0 5.3.4 6.9 1" fill="#b8d432"/></svg>

<?xml version="1.0" encoding="UTF-8" standalone="no"?>
<svg
   xmlns:dc="http://purl.org/dc/elements/1.1/"
   xmlns:cc="http://creativecommons.org/ns#"
   xmlns:rdf="http://www.w3.org/1999/02/22-rdf-syntax-ns#"
   xmlns:svg="http://www.w3.org/2000/svg"
   xmlns="http://www.w3.org/2000/svg"
   xmlns:sodipodi="http://sodipodi.sourceforge.net/DTD/sodipodi-0.dtd"
   xmlns:inkscape="http://www.inkscape.org/namespaces/inkscape"
   version="1.1"
   id="Layer_1"
   x="0px"
   y="0px"
   width="50"
   height="49.900002"
   viewBox="0 0 50 49.900002"
   enable-background="new 0 0 50 50"
   xml:space="preserve"
   inkscape:version="0.91 r13725"
   sodipodi:docname="Azure Data Factory_COLOR.svg"><metadata
     id="metadata17"><rdf:RDF><cc:Work
         rdf:about=""><dc:format>image/svg+xml</dc:format><dc:type
           rdf:resource="http://purl.org/dc/dcmitype/StillImage" /><dc:title></dc:title></cc:Work></rdf:RDF></metadata><defs
     id="defs15" /><sodipodi:namedview
     pagecolor="#ffffff"
     bordercolor="#666666"
     borderopacity="1"
     objecttolerance="10"
     gridtolerance="10"
     guidetolerance="10"
     inkscape:pageopacity="0"
     inkscape:pageshadow="2"
     inkscape:window-width="1920"
     inkscape:window-height="1018"
     id="namedview13"
     showgrid="false"
     fit-margin-top="0"
     fit-margin-left="0"
     fit-margin-right="0"
     fit-margin-bottom="0"
     inkscape:zoom="10.363697"
     inkscape:cx="24.141106"
     inkscape:cy="19.961658"
     inkscape:window-x="-8"
     inkscape:window-y="-8"
     inkscape:window-maximized="1"
     inkscape:current-layer="Layer_1" /><path
     d="M 49.9,29.4 49.9,29.4 49.9,17.3 36.2,29.2 35.9,29.2 35.9,17.3 22.2,29.2 22.2,29.2 22.2,4.3 C 22.2,2.2 17.5,0.1 11.3,0.1 5.1,0.1 0,2.1 0,4.3 L 0,49.9 50,49.9 49.9,29.4 Z M 11.3,6.3 C 6.8,6.3 3.2,5.2 3.2,4 3.2,2.8 6.8,1.7 11.3,1.7 15.8,1.7 19.4,2.7 19.4,4 19.3,5.2 15.7,6.3 11.3,6.3 Z M 34.9,41.8 29.4,41.8 29.4,36.3 34.9,36.3 34.9,41.8 Z M 25.2,41.8 19.7,41.8 19.7,36.3 25.2,36.3 25.2,41.8 Z M 39.2,41.8 39.2,36.3 44.7,36.3 44.7,41.8 39.2,41.8 Z"
     id="path3"
     inkscape:connector-curvature="0"
     style="fill:#59b4d9" /><rect
     x="0"
     y="4"
     width="11.1"
     height="45.900002"
     id="rect5"
     style="fill:#3999c6" /><path
     d="M 22.1,4 C 22.1,6.2 17.1,8 11,8 4.9,8 0,6.2 0,4 0,1.8 5,0 11.1,0 17.2,0 22.1,1.7 22.1,4"
     id="path7"
     inkscape:connector-curvature="0"
     style="fill:#ffffff" /><path
     d="M 19.9,3.7 C 19.9,5.2 16,6.3 11.1,6.3 6.2,6.3 2.3,5.2 2.3,3.7 2.3,2.2 6.2,1.1 11.1,1.1 16,1.1 19.9,2.3 19.9,3.7"
     id="path9"
     inkscape:connector-curvature="0"
     style="fill:#7fba00" /><path
     d="M 18,5.3 C 19.2,4.9 19.8,4.3 19.8,3.7 19.8,2.2 15.9,1.1 11,1.1 6.1,1.1 2.2,2.3 2.2,3.7 2.3,4.3 3,4.9 4.1,5.3 5.7,4.7 8.2,4.3 11.1,4.3 13.9,4.3 16.4,4.7 18,5.3"
     id="path11"
     inkscape:connector-curvature="0"
     style="fill:#b8d432" /></svg>
